static/logos/vercel-wordmark-color.svg

<svg width="100" height="23" viewBox="0 0 100 23" fill="none" xmlns="http://www.w3.org/2000/svg">
<g clip-path="url(#clip0_1_462)">
<path d="M50.107 5.63317C46.2201 5.63317 43.4175 8.16809 43.4175 11.9705C43.4175 15.7729 46.5687 18.3078 50.4592 18.3078C52.8073 18.3078 54.8776 17.3783 56.1591 15.8116L53.4658 14.2554C52.7546 15.0335 51.6737 15.4877 50.4592 15.4877C48.7726 15.4877 47.3398 14.6075 46.808 13.1992H56.6733C56.7506 12.8049 56.7965 12.3965 56.7965 11.967C56.7965 8.16809 53.9975 5.63317 50.107 5.63317ZM46.7799 10.7382C47.2199 9.33346 48.4241 8.44975 50.107 8.44975C51.7934 8.44975 52.9975 9.33346 53.4342 10.7382H46.7799ZM45.9842 1.76037L36.2283 18.6599L26.4689 1.76037H30.1269L36.2249 12.3226L42.3227 1.76037H45.9842ZM13.0091 0L26.0182 22.5327H0L13.0091 0ZM70.9497 11.9705C70.9497 14.0829 72.3299 15.4912 74.4705 15.4912C75.9211 15.4912 77.009 14.8328 77.5687 13.759L80.2726 15.3187C79.153 17.1847 77.0548 18.3078 74.4705 18.3078C70.58 18.3078 67.7812 15.7729 67.7812 11.9705C67.7812 8.16809 70.5836 5.63317 74.4705 5.63317C77.0548 5.63317 79.1496 6.75629 80.2726 8.62226L77.5687 10.182C77.009 9.10813 75.9211 8.44975 74.4705 8.44975C72.3335 8.44975 70.9497 9.85804 70.9497 11.9705ZM99.9887 1.76037V17.9557H96.8202V1.76037H99.9887ZM88.0182 5.63317C84.1314 5.63317 81.329 8.16809 81.329 11.9705C81.329 15.7729 84.4835 18.3078 88.3704 18.3078C90.7186 18.3078 92.7889 17.3783 94.0703 15.8116L91.377 14.2554C90.6658 15.0335 89.5849 15.4877 88.3704 15.4877C86.6839 15.4877 85.251 14.6075 84.7192 13.1992H94.5845C94.6618 12.8049 94.7075 12.3965 94.7075 11.967C94.7075 8.16809 91.9087 5.63317 88.0182 5.63317ZM84.6911 10.7382C85.1314 9.33346 86.3319 8.44975 88.0182 8.44975C89.7046 8.44975 90.9087 9.33346 91.3454 10.7382H84.6911ZM66.7249 5.98524V9.39682C66.3729 9.29473 65.9995 9.22431 65.5982 9.22431C63.5527 9.22431 62.0775 10.6326 62.0775 12.745V17.9557H58.909V5.98524H62.0775V9.22431C62.0775 7.43578 64.1582 5.98524 66.7249 5.98524Z" fill="black"/>
</g>
<defs>
<clipPath id="clip0_1_462">
<rect width="100" height="22.5327" fill="white"/>
</clipPath>
</defs>
</svg>

<svg xmlns="http://www.w3.org/2000/svg" width="278.261" height="64" fill="none" viewBox="0 0 100 23"><g clip-path="url(#a)"><path fill="#000" d="M50.107 5.633c-3.887 0-6.69 2.535-6.69 6.337 0 3.803 3.152 6.338 7.042 6.338 2.348 0 4.419-.93 5.7-2.496l-2.693-1.557c-.711.778-1.792 1.233-3.007 1.233-1.686 0-3.12-.88-3.651-2.289h9.865a6.37 6.37 0 0 0 .123-1.232c0-3.799-2.798-6.334-6.689-6.334Zm-3.327 5.105c.44-1.405 1.644-2.288 3.327-2.288 1.686 0 2.89.883 3.327 2.288H46.78Zm-.796-8.978-9.756 16.9-9.76-16.9h3.659l6.098 10.563L42.323 1.76h3.661ZM13.01 0l13.01 22.533H0L13.01 0Zm57.94 11.97c0 2.113 1.38 3.521 3.522 3.521 1.45 0 2.538-.658 3.098-1.732l2.704 1.56c-1.12 1.866-3.218 2.989-5.802 2.989-3.891 0-6.69-2.535-6.69-6.338 0-3.802 2.803-6.337 6.69-6.337 2.584 0 4.679 1.123 5.802 2.99l-2.704 1.559c-.56-1.074-1.648-1.732-3.099-1.732-2.136 0-3.52 1.408-3.52 3.52ZM99.99 1.76v16.196H96.82V1.76h3.169Zm-11.97 3.873c-3.888 0-6.69 2.535-6.69 6.337 0 3.803 3.155 6.338 7.041 6.338 2.349 0 4.419-.93 5.7-2.496l-2.693-1.557c-.711.778-1.792 1.233-3.007 1.233-1.686 0-3.119-.88-3.65-2.289h9.865a6.37 6.37 0 0 0 .123-1.232c0-3.799-2.8-6.334-6.69-6.334Zm-3.328 5.105c.44-1.405 1.64-2.288 3.327-2.288s2.89.883 3.327 2.288h-6.654ZM66.725 5.985v3.412a4.014 4.014 0 0 0-1.127-.173c-2.045 0-3.52 1.409-3.52 3.521v5.21h-3.169V5.986h3.169v3.24c0-1.79 2.08-3.24 4.647-3.24Z"/></g><defs><clipPath id="a"><path fill="#fff" d="M0 0h100v22.533H0z"/></clipPath></defs></svg>
